X: 52
T:Dick Gossip's
M:C|
L:1/8
Q:200
S:THSP
R:reel
N:
K:D
"D"F2AF GFED|F2AF GFED|"A"EDEF GFED|~E3F GFED|
"D"F2AF GFED|FBAF GFGA|"G"(3Bcd ef gece
|1 "A"dfec "D"dBAG:|2 "A"dfec "D"d2ef||:
"G"gB~B2 gBaB|gB~B2 gfed|"A"(3cBA eA fAeA|(3cBA ef gfef |
"G"gB~B2 gBaB|gB~B2 gfed|"A"(3Bcd ef gece
|1 dfec "D"d2ef:|2 dfec "D"dBAG|]
